www/static/icons/typescript.svg

<svg width="50" height="50" viewBox="0 0 50 50" fill="none" xmlns="http://www.w3.org/2000/svg">
<rect width="50" height="50" rx="6" fill="#F3FAFF"/>
<path fill-rule="evenodd" clip-rule="evenodd" d="M9.71094 6H40.2891C42.3386 6 44 7.66144 44 9.71094V40.2891C44 42.3386 42.3386 44 40.2891 44H9.71094C7.66144 44 6 42.3386 6 40.2891V9.71094C6 7.66144 7.66144 6 9.71094 6ZM29.5228 39.954V36.2385C30.1965 36.8036 30.9283 37.2274 31.7181 37.5099C32.508 37.7924 33.3056 37.9337 34.1109 37.9337C34.5833 37.9337 34.9956 37.8911 35.348 37.8059C35.7003 37.7208 35.9946 37.6028 36.2308 37.4518C36.4669 37.3009 36.6431 37.1229 36.7593 36.9177C36.8754 36.7126 36.9336 36.4901 36.9336 36.2502C36.9336 35.925 36.8406 35.6347 36.6548 35.3793C36.4689 35.1239 36.2153 34.8878 35.8939 34.6711C35.5726 34.4544 35.1912 34.2454 34.7498 34.0441C34.3084 33.8428 33.8322 33.6377 33.3211 33.4287C32.0201 32.8869 31.0502 32.225 30.4114 31.4433C29.7726 30.6615 29.4531 29.7171 29.4531 28.6102C29.4531 27.7433 29.6274 26.9983 29.9758 26.3752C30.3243 25.7521 30.7986 25.2393 31.3987 24.8367C31.9989 24.4342 32.6939 24.1382 33.4837 23.9485C34.2736 23.7589 35.1099 23.6641 35.9927 23.6641C36.8599 23.6641 37.6285 23.7163 38.2984 23.8208C38.9682 23.9253 39.5858 24.0859 40.151 24.3026V27.7743C39.8722 27.5807 39.5683 27.4105 39.2392 27.2634C38.9101 27.1163 38.5713 26.9944 38.2229 26.8976C37.8744 26.8009 37.5278 26.7293 37.1832 26.6828C36.8386 26.6364 36.5115 26.6132 36.2018 26.6132C35.7758 26.6132 35.3887 26.6538 35.0402 26.7351C34.6917 26.8164 34.3975 26.9306 34.1574 27.0776C33.9174 27.2247 33.7315 27.4008 33.5999 27.6059C33.4682 27.811 33.4024 28.0413 33.4024 28.2967C33.4024 28.5754 33.476 28.825 33.6231 29.0457C33.7702 29.2662 33.9793 29.4752 34.2503 29.6727C34.5214 29.87 34.8505 30.0635 35.2377 30.2532C35.6249 30.4428 36.0624 30.6383 36.5502 30.8395C37.2162 31.1181 37.8144 31.4142 38.3448 31.7277C38.8753 32.0412 39.3302 32.3954 39.7096 32.7901C40.0891 33.1849 40.3795 33.6358 40.5808 34.1428C40.7822 34.6498 40.8828 35.24 40.8828 35.9134C40.8828 36.8423 40.7066 37.6221 40.3543 38.2529C40.002 38.8838 39.5238 39.3947 38.9198 39.7856C38.3158 40.1765 37.613 40.4571 36.8115 40.6274C36.0101 40.7977 35.1641 40.8828 34.2736 40.8828C33.3598 40.8828 32.4906 40.8054 31.6659 40.6506C30.8412 40.4958 30.1268 40.2636 29.5228 39.954ZM28.043 27.0842H23.2766V40.6602H19.5008V27.0842H14.7578V24.0352H28.043V27.0842Z" fill="#3178C6"/>
</svg>

<svg width="50" height="50" fill="none" xmlns="http://www.w3.org/2000/svg"><rect width="50" height="50" rx="6" fill="#F3FAFF"/><path fill-rule="evenodd" clip-rule="evenodd" d="M9.71 6h30.58A3.71 3.71 0 0144 9.71v30.58A3.71 3.71 0 0140.29 44H9.71A3.71 3.71 0 016 40.29V9.71A3.71 3.71 0 019.71 6zm19.813 33.954v-3.715a7.142 7.142 0 004.588 1.695c.472 0 .885-.043 1.237-.128.352-.085.647-.203.883-.354.236-.151.412-.33.528-.534.116-.205.175-.428.175-.668 0-.325-.093-.615-.28-.87a3 3 0 00-.76-.709 7.954 7.954 0 00-1.144-.627 39.308 39.308 0 00-1.429-.615c-1.3-.542-2.27-1.204-2.91-1.986-.638-.782-.958-1.726-.958-2.833 0-.867.174-1.612.523-2.235a4.44 4.44 0 011.423-1.538 6.384 6.384 0 012.085-.889 10.72 10.72 0 012.509-.284c.867 0 1.636.052 2.305.157.67.104 1.288.265 1.853.482v3.471a5.6 5.6 0 00-.912-.51 7.23 7.23 0 00-1.016-.366 7.775 7.775 0 00-2.021-.285c-.426 0-.813.04-1.162.122a2.983 2.983 0 00-.883.343c-.24.147-.425.323-.557.528a1.251 1.251 0 00-.198.69c0 .28.074.529.221.75.147.22.356.43.627.627s.6.39.988.58c.387.19.824.385 1.312.587.666.278 1.264.574 1.795.888.53.313.985.667 1.365 1.062s.67.846.87 1.353c.202.507.303 1.097.303 1.77 0 .93-.176 1.71-.529 2.34a4.29 4.29 0 01-1.434 1.533c-.604.39-1.307.671-2.108.841-.802.17-1.648.256-2.538.256-.914 0-1.783-.078-2.608-.232-.825-.155-1.54-.387-2.143-.697zm-1.48-12.87h-4.766V40.66H19.5V27.084h-4.743v-3.049h13.285v3.05z" fill="#3178C6"/></svg>
